assets/icons/categories/photograph.svg

<svg height="800" viewBox="0 0 32 32" width="800" xmlns="http://www.w3.org/2000/svg"><path d="m21 17c0 2.757-2.243 5-5 5s-5-2.243-5-5 2.243-5 5-5 5 2.243 5 5zm-17-5h3v-2h-3zm19 5c0 3.86-3.14 7-7 7s-7-3.14-7-7 3.14-7 7-7 7 3.14 7 7zm-1 0c0-3.314-2.686-6-6-6s-6 2.686-6 6 2.686 6 6 6 6-2.686 6-6zm9-7v15c0 1.657-1.343 3-3 3h-24c-1.657 0-3-1.343-3-3v-15c0-1.657 1.343-3 3-3h5l1.171-2.342c.508-1.016 1.547-1.658 2.683-1.658h6.292c1.136 0 2.175.642 2.683 1.658l1.171 2.342h5c1.657 0 3 1.343 3 3zm-23 2v-2c0-.552-.448-1-1-1h-3c-.552 0-1 .448-1 1v2c0 .552.448 1 1 1h3c.552 0 1-.448 1-1zm16 5c0-4.418-3.582-8-8-8s-8 3.582-8 8 3.582 8 8 8 8-3.582 8-8z" fill="#0b1719"/></svg>

<?xml version="1.0" encoding="utf-8"?><!-- Uploaded to: SVG Repo, www.svgrepo.com, Generator: SVG Repo Mixer Tools -->
<svg version="1.1" id="Uploaded to svgrepo.com" xmlns="http://www.w3.org/2000/svg" xmlns:xlink="http://www.w3.org/1999/xlink" 
	 width="800px" height="800px" viewBox="0 0 32 32" xml:space="preserve">
<style type="text/css">
	.stone_een{fill:#0B1719;}
	.st0{fill:#0B1719;}
</style>
<path class="stone_een" d="M21,17c0,2.757-2.243,5-5,5s-5-2.243-5-5s2.243-5,5-5S21,14.243,21,17z M4,12h3v-2H4V12z M23,17
	c0,3.86-3.14,7-7,7s-7-3.14-7-7s3.14-7,7-7S23,13.14,23,17z M22,17c0-3.314-2.686-6-6-6s-6,2.686-6,6s2.686,6,6,6S22,20.314,22,17z
	 M31,10v15c0,1.657-1.343,3-3,3H4c-1.657,0-3-1.343-3-3V10c0-1.657,1.343-3,3-3h5l1.171-2.342C10.679,3.642,11.718,3,12.854,3h6.292
	c1.136,0,2.175,0.642,2.683,1.658L23,7h5C29.657,7,31,8.343,31,10z M8,12v-2c0-0.552-0.448-1-1-1H4c-0.552,0-1,0.448-1,1v2
	c0,0.552,0.448,1,1,1h3C7.552,13,8,12.552,8,12z M24,17c0-4.418-3.582-8-8-8s-8,3.582-8,8s3.582,8,8,8S24,21.418,24,17z"/>
</svg>
